
MODULE main_program
    PROC main()
        MoveL [[300.0000, -500.0000, 500.0000],[0.00000000, 0.00000000, 0.00000000, 1.00000000],[1, 0, 0, 0],[9E+09,9E+09,9E+09,9E+09,9E+09,9E+09]], v100, fine, tool0 \Wobj:=wobj0;
        MoveL [[1300.0000, -500.0000, 500.0000],[0.00000000, 0.00000000, 0.00000000, 1.00000000],[1, 0, 0, 0],[9E+09,9E+09,9E+09,9E+09,9E+09,9E+09]], v100, fine, tool0 \Wobj:=wobj0;
        MoveL [[1300.0000, 500.0000, 500.0000],[0.00000000, 0.00000000, 0.00000000, 1.00000000],[1, 0, 0, 0],[9E+09,9E+09,9E+09,9E+09,9E+09,9E+09]], v100, fine, tool0 \Wobj:=wobj0;
        MoveL [[300.0000, 500.0000, 500.0000],[0.00000000, 0.00000000, 0.00000000, 1.00000000],[1, 0, 0, 0],[9E+09,9E+09,9E+09,9E+09,9E+09,9E+09]], v100, fine, tool0 \Wobj:=wobj0;
        MoveL [[300.0000, -500.0000, 500.0000],[0.00000000, 0.00000000, 0.00000000, 1.00000000],[1, 0, 0, 0],[9E+09,9E+09,9E+09,9E+09,9E+09,9E+09]], v100, fine, tool0 \Wobj:=wobj0;
        MoveL [[300.0000, -500.0000, 500.0000],[0.00000000, 0.00000000, 0.00000000, 1.00000000],[1, 0, 0, 0],[9E+09,9E+09,9E+09,9E+09,9E+09,9E+09]], v200, z10, tool0 \Wobj:=wobj0;
        MoveL [[1300.0000, -500.0000, 500.0000],[0.00000000, 0.00000000, 0.00000000, 1.00000000],[1, 0, 0, 0],[9E+09,9E+09,9E+09,9E+09,9E+09,9E+09]], v200, z10, tool0 \Wobj:=wobj0;
        MoveL [[1300.0000, -400.0000, 500.0000],[0.00000000, 0.00000000, 0.00000000, 1.00000000],[1, 0, 0, 0],[9E+09,9E+09,9E+09,9E+09,9E+09,9E+09]], v200, z10, tool0 \Wobj:=wobj0;
        MoveL [[300.0000, -400.0000, 500.0000],[0.00000000, 0.00000000, 0.00000000, 1.00000000],[1, 0, 0, 0],[9E+09,9E+09,9E+09,9E+09,9E+09,9E+09]], v200, z10, tool0 \Wobj:=wobj0;
        MoveL [[300.0000, -300.0000, 500.0000],[0.00000000, 0.00000000, 0.00000000, 1.00000000],[1, 0, 0, 0],[9E+09,9E+09,9E+09,9E+09,9E+09,9E+09]], v200, z10, tool0 \Wobj:=wobj0;
        MoveL [[1300.0000, -300.0000, 500.0000],[0.00000000, 0.00000000, 0.00000000, 1.00000000],[1, 0, 0, 0],[9E+09,9E+09,9E+09,9E+09,9E+09,9E+09]], v200, z10, tool0 \Wobj:=wobj0;
        MoveL [[1300.0000, -200.0000, 500.0000],[0.00000000, 0.00000000, 0.00000000, 1.00000000],[1, 0, 0, 0],[9E+09,9E+09,9E+09,9E+09,9E+09,9E+09]], v200, z10, tool0 \Wobj:=wobj0;
        MoveL [[300.0000, -200.0000, 500.0000],[0.00000000, 0.00000000, 0.00000000, 1.00000000],[1, 0, 0, 0],[9E+09,9E+09,9E+09,9E+09,9E+09,9E+09]], v200, z10, tool0 \Wobj:=wobj0;
        MoveL [[300.0000, -100.0000, 500.0000],[0.00000000, 0.00000000, 0.00000000, 1.00000000],[1, 0, 0, 0],[9E+09,9E+09,9E+09,9E+09,9E+09,9E+09]], v200, z10, tool0 \Wobj:=wobj0;
        MoveL [[1300.0000, -100.0000, 500.0000],[0.00000000, 0.00000000, 0.00000000, 1.00000000],[1, 0, 0, 0],[9E+09,9E+09,9E+09,9E+09,9E+09,9E+09]], v200, z10, tool0 \Wobj:=wobj0;
        MoveL [[1300.0000, 0.0000, 500.0000],[0.00000000, 0.00000000, 0.00000000, 1.00000000],[1, 0, 0, 0],[9E+09,9E+09,9E+09,9E+09,9E+09,9E+09]], v200, z10, tool0 \Wobj:=wobj0;
        MoveL [[300.0000, 0.0000, 500.0000],[0.00000000, 0.00000000, 0.00000000, 1.00000000],[1, 0, 0, 0],[9E+09,9E+09,9E+09,9E+09,9E+09,9E+09]], v200, z10, tool0 \Wobj:=wobj0;
        MoveL [[300.0000, 100.0000, 500.0000],[0.00000000, 0.00000000, 0.00000000, 1.00000000],[1, 0, 0, 0],[9E+09,9E+09,9E+09,9E+09,9E+09,9E+09]], v200, z10, tool0 \Wobj:=wobj0;
        MoveL [[1300.0000, 100.0000, 500.0000],[0.00000000, 0.00000000, 0.00000000, 1.00000000],[1, 0, 0, 0],[9E+09,9E+09,9E+09,9E+09,9E+09,9E+09]], v200, z10, tool0 \Wobj:=wobj0;
        MoveL [[1300.0000, 200.0000, 500.0000],[0.00000000, 0.00000000, 0.00000000, 1.00000000],[1, 0, 0, 0],[9E+09,9E+09,9E+09,9E+09,9E+09,9E+09]], v200, z10, tool0 \Wobj:=wobj0;
        MoveL [[300.0000, 200.0000, 500.0000],[0.00000000, 0.00000000, 0.00000000, 1.00000000],[1, 0, 0, 0],[9E+09,9E+09,9E+09,9E+09,9E+09,9E+09]], v200, z10, tool0 \Wobj:=wobj0;
        MoveL [[300.0000, 300.0000, 500.0000],[0.00000000, 0.00000000, 0.00000000, 1.00000000],[1, 0, 0, 0],[9E+09,9E+09,9E+09,9E+09,9E+09,9E+09]], v200, z10, tool0 \Wobj:=wobj0;
        MoveL [[1300.0000, 300.0000, 500.0000],[0.00000000, 0.00000000, 0.00000000, 1.00000000],[1, 0, 0, 0],[9E+09,9E+09,9E+09,9E+09,9E+09,9E+09]], v200, z10, tool0 \Wobj:=wobj0;
        MoveL [[1300.0000, 400.0000, 500.0000],[0.00000000, 0.00000000, 0.00000000, 1.00000000],[1, 0, 0, 0],[9E+09,9E+09,9E+09,9E+09,9E+09,9E+09]], v200, z10, tool0 \Wobj:=wobj0;
        MoveL [[300.0000, 400.0000, 500.0000],[0.00000000, 0.00000000, 0.00000000, 1.00000000],[1, 0, 0, 0],[9E+09,9E+09,9E+09,9E+09,9E+09,9E+09]], v200, z10, tool0 \Wobj:=wobj0;
        MoveL [[300.0000, 500.0000, 500.0000],[0.00000000, 0.00000000, 0.00000000, 1.00000000],[1, 0, 0, 0],[9E+09,9E+09,9E+09,9E+09,9E+09,9E+09]], v200, z10, tool0 \Wobj:=wobj0;
        MoveL [[1300.0000, 500.0000, 500.0000],[0.00000000, 0.00000000, 0.00000000, 1.00000000],[1, 0, 0, 0],[9E+09,9E+09,9E+09,9E+09,9E+09,9E+09]], v200, z10, tool0 \Wobj:=wobj0;
    ENDPROC
ENDMODULE
